X:1
T:Title
%%score ( 1 2 ) ( 3 4 )
L:1/8
Q:1/4=90
M:4/4
K:Eb
V:1 treble nm="Bright Piano, Staff"
V:2 treble 
V:3 bass nm="Voice Oohs, Staff-1"
V:4 bass 
V:1
 [EB]2 [Ec]2 [EB]>A GA | [EB]2 [Ec]2 [EB]>[EA] GA | [EB]2 [FB]2 [Fc]2 [Fd][Ge] | %3
w: By~Tradicia~Europa~Melodio * * * * *|||
 [Fd]2 c-[Ec] [DB]4 | [DF]>[EG] [DF][EG] [DA]>B [FA]2 | [EG]>[FA] [EG][FA] [EB]>c [GB]2 | %6
w: |||
 edcB [Ee][Dc][EB][FA] | [EG]2 [DF]2 E4 |] %8
w: ||
V:2
 z4 z2 E2 | z4 z2 E2 | x8 | z2 .F2 z4 | x8 | x8 | E2 E2 z4 | x8 |] %8
V:3
 [E,G,]2 [E,A,]2 [E,G,]>F, E,F, | [E,G,]2 [E,A,]2 [E,G,]>[E,F,] E,F, | %2
 [E,G,]2 [D,B,]2 [C,=A,]2 B,-[E,B,] | [F,B,]2 [F,=A,]2 [B,,B,]4 | %4
 [B,,B,]>B, [A,B,][G,B,] [F,B,]2 [D,B,]2 | [E,B,]>[E,B,] [E,B,][E,B,] [G,B,]2 [E,B,]2 | %6
 CB,A,G, [E,C][F,A,][G,B,][A,C] | B,2 [B,,A,]2 [E,G,]4 |] %8
V:4
 x8 | x8 | z4 z2 .B,,2 | x8 | x8 | x8 | E,2 E,2 z4 | x8 |] %8

